SVG-Logos/Observability/Grafana/Icons/grafana-oncall-icon.svg

<svg xmlns="http://www.w3.org/2000/svg" width="55" height="55" viewBox="0 0 55 55" fill="none">
<path d="M19.8239 34.1478H35.1761C36.7543 34.1478 37.7348 32.442 36.9457 31.079L29.2696 17.7833C28.4804 16.4203 26.5116 16.4203 25.7304 17.7833L18.0543 31.079C17.2652 32.442 18.2536 34.1478 19.8239 34.1478ZM27.5 0C12.3152 0 0 12.3152 0 27.5C0 42.6848 12.3152 55 27.5 55C42.6848 55 55 42.6848 55 27.5C55 12.3152 42.6848 0 27.5 0ZM27.5717 12.5783C35.8138 12.6181 42.4616 19.3297 42.4217 27.5717C42.3819 35.8138 35.6703 42.4616 27.4283 42.4217C19.1862 42.3819 12.5384 35.6703 12.5783 27.4283C12.6181 19.1862 19.3297 12.5384 27.5717 12.5783ZM7.95507 35.9572C7.78768 36.013 7.62826 36.037 7.46087 36.037C6.7913 36.037 6.16159 35.6065 5.94638 34.937C5.1971 32.6333 4.82246 30.1543 4.82246 27.5717C4.82246 26.137 4.94203 24.6384 5.18116 23.1319C6.98261 13.9812 14.013 6.91884 23.1 5.07754C23.9688 4.90217 24.8058 5.46014 24.9812 6.32101C25.1565 7.18188 24.5986 8.02681 23.7377 8.20217C15.9181 9.78043 9.86812 15.8623 8.32971 23.6819C8.13043 24.9652 8.02681 26.2964 8.02681 27.5638C8.02681 29.8036 8.35362 31.9558 8.99928 33.9406C9.27029 34.7775 8.81594 35.6783 7.97101 35.9493L7.95507 35.9572ZM44.8928 42.5413C40.7 47.5312 34.6659 50.2732 27.9065 50.2732C21.1471 50.2732 14.7384 47.4913 10.3783 42.6449C9.78841 41.9913 9.8442 40.979 10.4978 40.3971C11.1514 39.8072 12.1638 39.863 12.7457 40.5167C16.4442 44.6297 22.1036 47.0928 27.8986 47.0928C33.6935 47.0928 38.8667 44.7493 42.4457 40.4928C43.0116 39.8232 44.0159 39.7275 44.6935 40.3014C45.371 40.8674 45.4507 41.8717 44.8848 42.5493L44.8928 42.5413ZM49.2051 34.8333C48.9739 35.4949 48.3601 35.9015 47.6986 35.9015C47.5232 35.9015 47.3478 35.8696 47.1725 35.8138C46.3435 35.5268 45.9051 34.6181 46.192 33.7812C46.471 32.9681 46.7261 32.1152 46.9333 31.2384C47.1725 30.0348 47.3 28.7435 47.3 27.4681C47.3 18.1101 40.6283 10.0036 31.4297 8.18623C30.5688 8.01884 29.971 7.18188 30.1304 6.32101C30.2899 5.46014 31.087 4.88623 31.9399 5.03768C31.9558 5.03768 32.0275 5.05362 32.0435 5.06159C42.7246 7.16594 50.4804 16.5957 50.4804 27.4681C50.4804 28.9507 50.337 30.4493 50.042 31.9159C49.7949 32.9601 49.5159 33.9167 49.1971 34.8333H49.2051Z" fill="url(#paint0_linear_23830_2398)"/>
<defs>
<linearGradient id="paint0_linear_23830_2398" x1="27.9074" y1="54.7098" x2="27.9074" y2="0" gradientUnits="userSpaceOnUse">
<stop stop-color="#FAC10D"/>
<stop offset="1" stop-color="#F05A28"/>
</linearGradient>
</defs>
</svg>

<svg xmlns="http://www.w3.org/2000/svg" fill="none" viewBox="0 0 55 55"><path fill="url(#a)" d="M19.824 34.148h15.352c1.578 0 2.559-1.706 1.77-3.069L29.27 17.783c-.79-1.363-2.758-1.363-3.54 0L18.054 31.08c-.789 1.363.2 3.069 1.77 3.069ZM27.5 0C12.315 0 0 12.315 0 27.5S12.315 55 27.5 55 55 42.685 55 27.5 42.685 0 27.5 0Zm.072 12.578c8.242.04 14.89 6.752 14.85 14.994-.04 8.242-6.752 14.89-14.994 14.85-8.242-.04-14.89-6.752-14.85-14.994.04-8.242 6.752-14.89 14.994-14.85ZM7.955 35.958a1.596 1.596 0 0 1-2.009-1.02c-.749-2.305-1.124-4.784-1.124-7.366 0-1.435.12-2.934.36-4.44 1.8-9.15 8.831-16.213 17.918-18.054a1.593 1.593 0 1 1 .638 3.124A19.618 19.618 0 0 0 8.33 23.682a25.632 25.632 0 0 0-.303 3.882c0 2.24.327 4.392.972 6.377a1.591 1.591 0 0 1-1.028 2.008l-.016.008Zm36.938 6.583c-4.193 4.99-10.227 7.732-16.986 7.732-6.76 0-13.169-2.782-17.529-7.628a1.59 1.59 0 0 1 .12-2.248 1.59 1.59 0 0 1 2.248.12c3.698 4.113 9.358 6.576 15.153 6.576 5.794 0 10.968-2.344 14.547-6.6a1.593 1.593 0 0 1 2.248-.192c.677.566.757 1.57.19 2.248l.009-.008Zm4.312-7.708a1.59 1.59 0 0 1-1.506 1.069c-.176 0-.351-.032-.526-.088a1.598 1.598 0 0 1-.981-2.033c.279-.813.534-1.666.741-2.543.24-1.203.367-2.494.367-3.77 0-9.358-6.672-17.464-15.87-19.282-.861-.167-1.459-1.004-1.3-1.865.16-.86.957-1.435 1.81-1.283.016 0 .088.016.104.024C42.724 7.166 50.48 16.596 50.48 27.468c0 1.483-.143 2.981-.438 4.448-.247 1.044-.526 2-.845 2.917h.008Z"/><defs><linearGradient id="a" x1="27.907" x2="27.907" y1="54.71" y2="0" gradientUnits="userSpaceOnUse"><stop stop-color="#FAC10D"/><stop offset="1" stop-color="#F05A28"/></linearGradient></defs></svg>
